assets/features/icon-04.svg

<svg width="37" height="37" viewBox="0 0 37 37" fill="none" xmlns="http://www.w3.org/2000/svg">
<path d="M12.355 2.0614H5.21129C3.29879 2.0614 1.72379 3.6364 1.72379 5.5489V12.6927C1.72379 14.6052 3.29879 16.1802 5.21129 16.1802H12.355C14.2675 16.1802 15.8425 14.6052 15.8425 12.6927V5.60515C15.8988 3.6364 14.3238 2.0614 12.355 2.0614ZM13.3675 12.7489C13.3675 13.3114 12.9175 13.7614 12.355 13.7614H5.21129C4.64879 13.7614 4.19879 13.3114 4.19879 12.7489V5.60515C4.19879 5.04265 4.64879 4.59265 5.21129 4.59265H12.355C12.9175 4.59265 13.3675 5.04265 13.3675 5.60515V12.7489Z" fill="white"/>
<path d="M31.0863 2.0614H23.9425C22.03 2.0614 20.455 3.6364 20.455 5.5489V12.6927C20.455 14.6052 22.03 16.1802 23.9425 16.1802H31.0863C32.9988 16.1802 34.5738 14.6052 34.5738 12.6927V5.60515C34.5738 3.6364 32.9988 2.0614 31.0863 2.0614ZM32.0988 12.7489C32.0988 13.3114 31.6488 13.7614 31.0863 13.7614H23.9425C23.38 13.7614 22.93 13.3114 22.93 12.7489V5.60515C22.93 5.04265 23.38 4.59265 23.9425 4.59265H31.0863C31.6488 4.59265 32.0988 5.04265 32.0988 5.60515V12.7489Z" fill="white"/>
<path d="M12.355 20.0051H5.21129C3.29879 20.0051 1.72379 21.5801 1.72379 23.4926V30.6364C1.72379 32.5489 3.29879 34.1239 5.21129 34.1239H12.355C14.2675 34.1239 15.8425 32.5489 15.8425 30.6364V23.5489C15.8988 21.5801 14.3238 20.0051 12.355 20.0051ZM13.3675 30.6926C13.3675 31.2551 12.9175 31.7051 12.355 31.7051H5.21129C4.64879 31.7051 4.19879 31.2551 4.19879 30.6926V23.5489C4.19879 22.9864 4.64879 22.5364 5.21129 22.5364H12.355C12.9175 22.5364 13.3675 22.9864 13.3675 23.5489V30.6926Z" fill="white"/>
<path d="M31.0863 20.0051H23.9425C22.03 20.0051 20.455 21.5801 20.455 23.4926V30.6364C20.455 32.5489 22.03 34.1239 23.9425 34.1239H31.0863C32.9988 34.1239 34.5738 32.5489 34.5738 30.6364V23.5489C34.5738 21.5801 32.9988 20.0051 31.0863 20.0051ZM32.0988 30.6926C32.0988 31.2551 31.6488 31.7051 31.0863 31.7051H23.9425C23.38 31.7051 22.93 31.2551 22.93 30.6926V23.5489C22.93 22.9864 23.38 22.5364 23.9425 22.5364H31.0863C31.6488 22.5364 32.0988 22.9864 32.0988 23.5489V30.6926Z" fill="white"/>
</svg>

<svg xmlns="http://www.w3.org/2000/svg" width="37" height="37" fill="none"><path fill="#fff" d="M12.355 2.061H5.211A3.505 3.505 0 0 0 1.724 5.55v7.144A3.505 3.505 0 0 0 5.21 16.18h7.144a3.505 3.505 0 0 0 3.487-3.487V5.605c.057-1.969-1.518-3.544-3.487-3.544Zm1.012 10.688c0 .562-.45 1.012-1.012 1.012H5.211c-.562 0-1.012-.45-1.012-1.012V5.605c0-.562.45-1.012 1.012-1.012h7.144c.563 0 1.012.45 1.012 1.012v7.144ZM31.086 2.061h-7.143a3.505 3.505 0 0 0-3.488 3.488v7.144a3.505 3.505 0 0 0 3.488 3.487h7.143a3.505 3.505 0 0 0 3.488-3.487V5.605c0-1.969-1.575-3.544-3.488-3.544ZM32.1 12.75c0 .562-.45 1.012-1.013 1.012h-7.143c-.563 0-1.013-.45-1.013-1.012V5.605c0-.562.45-1.012 1.012-1.012h7.144c.563 0 1.013.45 1.013 1.012v7.144Zm-19.745 7.255H5.211a3.505 3.505 0 0 0-3.487 3.488v7.143a3.505 3.505 0 0 0 3.487 3.488h7.144a3.505 3.505 0 0 0 3.487-3.488V23.55c.057-1.969-1.518-3.544-3.487-3.544Zm1.012 10.688c0 .562-.45 1.012-1.012 1.012H5.211c-.562 0-1.012-.45-1.012-1.012v-7.144c0-.563.45-1.013 1.012-1.013h7.144c.563 0 1.012.45 1.012 1.013v7.144Zm17.719-10.688h-7.143a3.505 3.505 0 0 0-3.488 3.488v7.143a3.505 3.505 0 0 0 3.488 3.488h7.143a3.505 3.505 0 0 0 3.488-3.488V23.55c0-1.969-1.575-3.544-3.488-3.544ZM32.1 30.693c0 .562-.45 1.012-1.013 1.012h-7.143c-.563 0-1.013-.45-1.013-1.012v-7.144c0-.563.45-1.013 1.012-1.013h7.144c.563 0 1.013.45 1.013 1.013v7.144Z"/></svg>
